X:2
T:Mistakes Were Made
C:copyright 1997 Kaubells
E:12                   % note spacing
M:C
K:Am
\bigskip
"Am"a2A2 ABcA|"Dm"d^cde fagf|"Am"ef/e/^de c'2a2|"E7"ba^gf e^fge|
"Am"a2A2 ABcA|"Dm"d^cde f2gf|"Am"ef/e/^de c'2az/c'/|"E7"bee'2 a4:|
|:"C"c'2c z/a/ gfec|"Dm"d^cde fagf|"C"efge c'2bc'|"G7"d'c'ba gabg|
"C"c'2c z/a/ gfec|"Dm"d^cde fagf|"C"g/a/gef edce|"G7"d2g2 c4:|
